res/skins/Tango/buttons/btn_logo_102x24_grey.svg

<?xml version="1.0" encoding="UTF-8" standalone="no"?>
<!-- Created with Inkscape (http://www.inkscape.org/) -->

<svg
   xmlns:dc="http://purl.org/dc/elements/1.1/"
   xmlns:cc="http://creativecommons.org/ns#"
   xmlns:rdf="http://www.w3.org/1999/02/22-rdf-syntax-ns#"
   xmlns:svg="http://www.w3.org/2000/svg"
   xmlns="http://www.w3.org/2000/svg"
   xmlns:xlink="http://www.w3.org/1999/xlink"
   version="1.1"
   width="102"
   height="24"
   id="svg3464">
  <metadata
     id="metadata3635">
    <rdf:RDF>
      <cc:Work
         rdf:about="">
        <dc:format>image/svg+xml</dc:format>
        <dc:type
           rdf:resource="http://purl.org/dc/dcmitype/StillImage" />
        <dc:title></dc:title>
      </cc:Work>
    </rdf:RDF>
  </metadata>
  <defs
     id="defs3466">
    <linearGradient
       x1="44.0611"
       y1="0.24690001"
       x2="44.0611"
       y2="93.877998"
       id="s"
       gradientUnits="userSpaceOnUse">
      <stop
         id="stop3469"
         style="stop-color:#1f1f20;stop-opacity:1"
         offset="0" />
      <stop
         id="stop3471"
         style="stop-color:#1f1f20;stop-opacity:1"
         offset="0.00555556" />
      <stop
         id="stop3473"
         style="stop-color:#58595b;stop-opacity:1"
         offset="0.63333303" />
      <stop
         id="stop3475"
         style="stop-color:#a5a8aa;stop-opacity:1"
         offset="1" />
    </linearGradient>
    <linearGradient
       x1="44.066101"
       y1="0.24690001"
       x2="44.066101"
       y2="93.877998"
       id="t"
       gradientUnits="userSpaceOnUse">
      <stop
         id="stop3478"
         style="stop-color:#1f1f20;stop-opacity:1"
         offset="0" />
      <stop
         id="stop3480"
         style="stop-color:#1f1f20;stop-opacity:1"
         offset="0.00555556" />
      <stop
         id="stop3482"
         style="stop-color:#58595b;stop-opacity:1"
         offset="0.63333303" />
      <stop
         id="stop3484"
         style="stop-color:#a5a8aa;stop-opacity:1"
         offset="1" />
    </linearGradient>
    <linearGradient
       x1="44.066299"
       y1="0.24690001"
       x2="44.066299"
       y2="93.877998"
       id="u"
       gradientUnits="userSpaceOnUse">
      <stop
         id="stop3487"
         style="stop-color:#1f1f20;stop-opacity:1"
         offset="0" />
      <stop
         id="stop3489"
         style="stop-color:#1f1f20;stop-opacity:1"
         offset="0.00555556" />
      <stop
         id="stop3491"
         style="stop-color:#58595b;stop-opacity:1"
         offset="0.63333303" />
      <stop
         id="stop3493"
         style="stop-color:#a5a8aa;stop-opacity:1"
         offset="1" />
    </linearGradient>
    <linearGradient
       x1="11.5568"
       y1="0.24690001"
       x2="11.5568"
       y2="93.877998"
       id="v"
       gradientUnits="userSpaceOnUse">
      <stop
         id="stop3496"
         style="stop-color:#1f1f20;stop-opacity:1"
         offset="0" />
      <stop
         id="stop3498"
         style="stop-color:#1f1f20;stop-opacity:1"
         offset="0.00555556" />
      <stop
         id="stop3500"
         style="stop-color:#58595b;stop-opacity:1"
         offset="0.63333303" />
      <stop
         id="stop3502"
         style="stop-color:#a5a8aa;stop-opacity:1"
         offset="1" />
    </linearGradient>
    <linearGradient
       x1="52.543499"
       y1="0.24690001"
       x2="52.543499"
       y2="93.877998"
       id="w"
       gradientUnits="userSpaceOnUse">
      <stop
         id="stop3505"
         style="stop-color:#1f1f20;stop-opacity:1"
         offset="0" />
      <stop
         id="stop3507"
         style="stop-color:#1f1f20;stop-opacity:1"
         offset="0.00555556" />
      <stop
         id="stop3509"
         style="stop-color:#58595b;stop-opacity:1"
         offset="0.63333303" />
      <stop
         id="stop3511"
         style="stop-color:#a5a8aa;stop-opacity:1"
         offset="1" />
    </linearGradient>
    <linearGradient
       x1="0.34819999"
       y1="90.636597"
       x2="0.34819999"
       y2="-2.3324001"
       id="a"
       gradientUnits="userSpaceOnUse">
      <stop
         id="stop3514"
         style="stop-color:#a2a2a2;stop-opacity:1"
         offset="0" />
      <stop
         id="stop3516"
         style="stop-color:#000000;stop-opacity:1"
         offset="1" />
    </linearGradient>
    <linearGradient
       x1="0.34799999"
       y1="90.636597"
       x2="0.34799999"
       y2="-2.3324001"
       id="b"
       gradientUnits="userSpaceOnUse">
      <stop
         id="stop3519"
         style="stop-color:#ffffff;stop-opacity:1"
         offset="0" />
      <stop
         id="stop3521"
         style="stop-color:#000000;stop-opacity:1"
         offset="1" />
    </linearGradient>
    <linearGradient
       x1="0.31259999"
       y1="88.656097"
       x2="0.31259999"
       y2="1.1722"
       id="c"
       gradientUnits="userSpaceOnUse">
      <stop
         id="stop3524"
         style="stop-color:#ffffff;stop-opacity:1"
         offset="0" />
      <stop
         id="stop3526"
         style="stop-color:#000000;stop-opacity:1"
         offset="1" />
    </linearGradient>
    <linearGradient
       x1="0.31209999"
       y1="88.656097"
       x2="0.31209999"
       y2="1.1722"
       id="d"
       gradientUnits="userSpaceOnUse">
      <stop
         id="stop3529"
         style="stop-color:#ffffff;stop-opacity:1"
         offset="0" />
      <stop
         id="stop3531"
         style="stop-color:#000000;stop-opacity:1"
         offset="1" />
    </linearGradient>
    <linearGradient
       x1="30.5499"
       y1="89.1185"
       x2="30.5499"
       y2="-3.2409"
       id="e"
       gradientUnits="userSpaceOnUse">
      <stop
         id="stop3534"
         style="stop-color:#ffffff;stop-opacity:1"
         offset="0" />
      <stop
         id="stop3536"
         style="stop-color:#000000;stop-opacity:1"
         offset="1" />
    </linearGradient>
    <linearGradient
       x1="30.547501"
       y1="90.025703"
       x2="30.547501"
       y2="0.1055"
       id="f"
       gradientUnits="userSpaceOnUse">
      <stop
         id="stop3539"
         style="stop-color:#ffffff;stop-opacity:1"
         offset="0" />
      <stop
         id="stop3541"
         style="stop-color:#000000;stop-opacity:1"
         offset="1" />
    </linearGradient>
    <linearGradient
       x1="30.5495"
       y1="89.118202"
       x2="30.5495"
       y2="-3.2412"
       id="g"
       gradientUnits="userSpaceOnUse">
      <stop
         id="stop3544"
         style="stop-color:#ffffff;stop-opacity:1"
         offset="0" />
      <stop
         id="stop3546"
         style="stop-color:#000000;stop-opacity:1"
         offset="1" />
    </linearGradient>
    <linearGradient
       x1="30.549101"
       y1="90.025398"
       x2="30.549101"
       y2="0.1052"
       id="h"
       gradientUnits="userSpaceOnUse">
      <stop
         id="stop3549"
         style="stop-color:#ffffff;stop-opacity:1"
         offset="0" />
      <stop
         id="stop3551"
         style="stop-color:#000000;stop-opacity:1"
         offset="1" />
    </linearGradient>
    <linearGradient
       x1="30.5494"
       y1="89.118202"
       x2="30.5494"
       y2="-3.2412"
       id="i"
       gradientUnits="userSpaceOnUse">
      <stop
         id="stop3554"
         style="stop-color:#ffffff;stop-opacity:1"
         offset="0" />
      <stop
         id="stop3556"
         style="stop-color:#000000;stop-opacity:1"
         offset="1" />
    </linearGradient>
    <linearGradient
       x1="30.549"
       y1="90.025398"
       x2="30.549"
       y2="0.1052"
       id="j"
       gradientUnits="userSpaceOnUse">
      <stop
         id="stop3559"
         style="stop-color:#ffffff;stop-opacity:1"
         offset="0" />
      <stop
         id="stop3561"
         style="stop-color:#000000;stop-opacity:1"
         offset="1" />
    </linearGradient>
    <linearGradient
       x1="0.29169801"
       y1="52.640499"
       x2="0.29169801"
       y2="-37.8988"
       id="k"
       gradientUnits="userSpaceOnUse">
      <stop
         id="stop3564"
         style="stop-color:#ffffff;stop-opacity:1"
         offset="0" />
      <stop
         id="stop3566"
         style="stop-color:#000000;stop-opacity:1"
         offset="1" />
    </linearGradient>
    <linearGradient
       x1="0.2481"
       y1="52.9165"
       x2="0.2481"
       y2="-35.325699"
       id="l"
       gradientUnits="userSpaceOnUse">
      <stop
         id="stop3569"
         style="stop-color:#ffffff;stop-opacity:1"
         offset="0" />
      <stop
         id="stop3571"
         style="stop-color:#000000;stop-opacity:1"
         offset="1" />
    </linearGradient>
    <linearGradient
       x1="27.6264"
       y1="89.119904"
       x2="27.6264"
       y2="0.1302"
       id="m"
       gradientUnits="userSpaceOnUse">
      <stop
         id="stop3574"
         style="stop-color:#ffffff;stop-opacity:1"
         offset="0" />
      <stop
         id="stop3576"
         style="stop-color:#000000;stop-opacity:1"
         offset="1" />
    </linearGradient>
    <linearGradient
       x1="29.726101"
       y1="53.389"
       x2="29.726101"
       y2="-36.621201"
       id="n"
       gradientUnits="userSpaceOnUse">
      <stop
         id="stop3579"
         style="stop-color:#ffffff;stop-opacity:1"
         offset="0" />
      <stop
         id="stop3581"
         style="stop-color:#000000;stop-opacity:1"
         offset="1" />
    </linearGradient>
    <linearGradient
       x1="0.34819999"
       y1="90.636597"
       x2="0.34819999"
       y2="-2.3324001"
       id="o"
       gradientUnits="userSpaceOnUse">
      <stop
         id="stop3584"
         style="stop-color:#ffffff;stop-opacity:1"
         offset="0" />
      <stop
         id="stop3586"
         style="stop-color:#000000;stop-opacity:1"
         offset="1" />
    </linearGradient>
    <linearGradient
       x1="0.34819999"
       y1="90.636597"
       x2="0.34819999"
       y2="-2.3324001"
       id="p"
       gradientUnits="userSpaceOnUse">
      <stop
         id="stop3589"
         style="stop-color:#ffffff;stop-opacity:1"
         offset="0" />
      <stop
         id="stop3591"
         style="stop-color:#000000;stop-opacity:1"
         offset="1" />
    </linearGradient>
    <linearGradient
       x1="0.34819999"
       y1="90.636597"
       x2="0.34819999"
       y2="-2.3324001"
       id="q"
       gradientUnits="userSpaceOnUse">
      <stop
         id="stop3594"
         style="stop-color:#a2a2a2;stop-opacity:1"
         offset="0" />
      <stop
         id="stop3596"
         style="stop-color:#000000;stop-opacity:1"
         offset="1" />
    </linearGradient>
    <linearGradient
       x1="0.34819999"
       y1="90.636597"
       x2="0.34819999"
       y2="-2.3324001"
       id="r"
       gradientUnits="userSpaceOnUse">
      <stop
         id="stop3599"
         style="stop-color:#a2a2a2;stop-opacity:1"
         offset="0" />
      <stop
         id="stop3601"
         style="stop-color:#000000;stop-opacity:1"
         offset="1" />
    </linearGradient>
    <linearGradient
       x1="44.0611"
       y1="0.24690001"
       x2="44.0611"
       y2="93.877998"
       id="z"
       gradientUnits="userSpaceOnUse">
      <stop
         id="stop3604"
         style="stop-color:#1f1f20;stop-opacity:1"
         offset="0" />
      <stop
         id="stop3606"
         style="stop-color:#1f1f20;stop-opacity:1"
         offset="0.00555556" />
      <stop
         id="stop3608"
         style="stop-color:#58595b;stop-opacity:1"
         offset="0.63333303" />
      <stop
         id="stop3610"
         style="stop-color:#a5a8aa;stop-opacity:1"
         offset="1" />
    </linearGradient>
    <linearGradient
       x1="44.0611"
       y1="0.24690001"
       x2="44.0611"
       y2="93.877998"
       id="y"
       gradientUnits="userSpaceOnUse">
      <stop
         id="stop3613"
         style="stop-color:#1f1f20;stop-opacity:1"
         offset="0" />
      <stop
         id="stop3615"
         style="stop-color:#1f1f20;stop-opacity:1"
         offset="0.00555556" />
      <stop
         id="stop3617"
         style="stop-color:#58595b;stop-opacity:1"
         offset="0.63333303" />
      <stop
         id="stop3619"
         style="stop-color:#a5a8aa;stop-opacity:1"
         offset="1" />
    </linearGradient>
    <linearGradient
       x1="44.0611"
       y1="0.24690001"
       x2="44.0611"
       y2="93.877998"
       id="x"
       gradientUnits="userSpaceOnUse">
      <stop
         id="stop3622"
         style="stop-color:#1f1f20;stop-opacity:1"
         offset="0" />
      <stop
         id="stop3624"
         style="stop-color:#1f1f20;stop-opacity:1"
         offset="0.00555556" />
      <stop
         id="stop3626"
         style="stop-color:#58595b;stop-opacity:1"
         offset="0.63333303" />
      <stop
         id="stop3628"
         style="stop-color:#a5a8aa;stop-opacity:1"
         offset="1" />
    </linearGradient>
    <linearGradient
       x1="52.543499"
       y1="0.24690001"
       x2="52.543499"
       y2="93.877998"
       id="A"
       xlink:href="#w"
       gradientUnits="userSpaceOnUse"
       gradientTransform="matrix(0.26801,0,0,0.26907,4.5,0.0141)" />
  </defs>
  <path
     d="M 9.074548,23.993434 V 9.951001 l 7.846393,11.957109 h 0.160005 L 25.008812,9.829379 v 14.164055 h 6.156026 V 0.0141 H 24.486989 L 17.080946,11.970939 9.678653,0.0141 H 3 V 23.993434 H 9.074548 z M 33.903948,0.0141 h 6.195153 V 23.993434 H 33.903948 V 0.0141 z M 42.5733,0 50.766194,12 42.5733,24 h 7.239538 L 54.371067,17.300247 58.959088,24 h 7.269329 L 70.786645,17.300247 75.344871,24 h 7.269328 L 87.202219,17.300247 91.760459,24 H 99 L 90.807104,12 99,0 H 91.760459 L 87.20223,6.699752 82.614208,0 H 75.344884 L 70.786657,6.669975 66.228428,0 H 58.959103 L 54.37108,6.699752 49.812852,0 H 42.573313 z M 78.979543,5.270471 83.567563,12 78.979543,18.729529 74.391521,12 78.979543,5.270471 z M 62.593754,5.300248 67.151982,12 62.593754,18.699753 58.005732,12 62.593754,5.300248 z"
     id="path3631"
     style="fill:url(#A)" />
</svg>

<!-- Created with Inkscape (http://www.inkscape.org/) -->
<svg id="svg3464" width="102" height="24" version="1.1" xmlns="http://www.w3.org/2000/svg" xmlns:xlink="http://www.w3.org/1999/xlink"><defs id="defs3466"><linearGradient id="A" x1="52.543" x2="52.543" y1=".2469" y2="93.878" gradientTransform="matrix(.26801 0 0 .26907 4.5 .0141)" gradientUnits="userSpaceOnUse"><stop id="stop3505" stop-color="#1f1f20" offset="0"/><stop id="stop3507" stop-color="#1f1f20" offset=".0055556"/><stop id="stop3509" stop-color="#58595b" offset=".63333"/><stop id="stop3511" stop-color="#a5a8aa" offset="1"/></linearGradient></defs><path id="path3631" d="m9.0745 23.993v-14.042l7.8464 11.957h0.16l7.9279-12.079v14.164h6.156v-23.979h-6.6778l-7.406 11.957-7.4023-11.957h-6.6787v23.979h6.0745zm24.829-23.979h6.1952v23.979h-6.1952v-23.979zm8.6694-0.0141 8.1929 12-8.1929 12h7.2395l4.5582-6.6998 4.588 6.6998h7.2693l4.5582-6.6998 4.5582 6.6998h7.2693l4.588-6.6998 4.5582 6.6998h7.2395l-8.1929-12 8.1929-12h-7.2395l-4.5582 6.6998-4.588-6.6998h-7.2693l-4.5582 6.67-4.5582-6.67h-7.2693l-4.588 6.6998-4.5582-6.6998h-7.2395zm36.406 5.2705 4.588 6.7295-4.588 6.7295-4.588-6.7295 4.588-6.7295zm-16.386 0.029777 4.5582 6.6998-4.5582 6.6998-4.588-6.6998 4.588-6.6998z" fill="url(#A)"/></svg>
